client/src/all-icon/mobile-bar/feedback.svg

<svg width="60" height="60" viewBox="0 0 60 60" fill="none" xmlns="http://www.w3.org/2000/svg">
<path d="M30 60C46.5685 60 60 46.5685 60 30C60 13.4315 46.5685 0 30 0C13.4315 0 0 13.4315 0 30C0 46.5685 13.4315 60 30 60Z" fill="url(#paint0_linear_308_2)"/>
<path fill-rule="evenodd" clip-rule="evenodd" d="M47.2208 20.5146V36.827C47.2208 37.9789 46.7267 39.0836 45.8472 39.898C44.9677 40.7125 43.7748 41.1701 42.531 41.1701H30.7782C29.9974 41.279 29.257 41.5622 28.6209 41.9953C26.5212 43.3517 24.5089 44.8207 22.5944 46.3948C22.3984 45.2875 22.068 44.2043 21.6095 43.1657C21.4317 42.6391 21.0938 42.1712 20.6364 41.8177C20.179 41.4641 19.6214 41.2401 19.0301 41.1723C17.7863 41.1723 16.5934 40.7147 15.7139 39.9002C14.8344 39.0857 14.3402 37.9811 14.3402 36.8292V20.5146C14.3402 19.3627 14.8344 18.258 15.7139 17.4436C16.5934 16.6291 17.7863 16.1715 19.0301 16.1715H42.5216C43.1383 16.1704 43.7491 16.2819 44.3192 16.4996C44.8893 16.7174 45.4074 17.0371 45.8439 17.4405C46.2804 17.8439 46.6267 18.3231 46.8629 18.8505C47.0992 19.378 47.2208 19.9435 47.2208 20.5146ZM18.9691 43.3525C19.0859 43.4671 19.1911 43.5914 19.2834 43.7238C19.4866 44.0694 19.6516 44.4332 19.7758 44.8096C20.1722 46.0632 20.4407 47.3486 20.5778 48.6488C20.5977 48.8492 20.6775 49.0406 20.8081 49.2015C20.9388 49.3624 21.1151 49.4865 21.3175 49.5599C21.5199 49.6333 21.7403 49.6532 21.9542 49.6173C22.1681 49.5815 22.367 49.4912 22.5287 49.3567C22.5287 49.3567 26.1563 46.3166 28.86 44.5077C29.5026 44.0882 30.1722 43.7053 30.865 43.3611H42.5333C44.3991 43.3611 46.1884 42.6748 47.5077 41.4531C48.827 40.2314 49.5681 38.5743 49.5681 36.8466V20.5146C49.5681 18.7868 48.827 17.1298 47.5077 15.9081C46.1884 14.6864 44.3991 14 42.5333 14H19.0348C17.1691 14 15.3797 14.6864 14.0605 15.9081C12.7412 17.1298 12 18.7868 12 20.5146V36.827C11.9968 38.5462 12.7276 40.1968 14.0331 41.4192C15.3385 42.6415 17.1128 43.3364 18.9691 43.3525Z" fill="white"/>
<path d="M39.9503 25.8012C39.8252 25.4208 39.4839 25.1516 39.0818 25.1156L33.5971 24.6233L31.4295 19.6065C31.2695 19.2379 30.9053 19 30.5 19C30.0947 19 29.7304 19.2379 29.5714 19.6065L27.4038 24.6233L21.9182 25.1156C21.5161 25.1523 21.1756 25.4215 21.0497 25.8012C20.9246 26.1815 21.0402 26.5987 21.3443 26.8624L25.4903 30.4563L24.2679 35.779C24.1784 36.1703 24.3321 36.575 24.6606 36.8098C24.8371 36.9366 25.0446 37 25.2527 37C25.4316 37 25.6106 36.9529 25.7705 36.8584L30.5 34.0628L35.2286 36.8584C35.5755 37.0633 36.0117 37.0445 36.3394 36.8098C36.6679 36.575 36.8216 36.1703 36.7322 35.779L35.5097 30.4563L39.6557 26.8624C39.9597 26.5987 40.0754 26.1824 39.9503 25.8012Z" fill="#ED4D1B"/>
<defs>
<linearGradient id="paint0_linear_308_2" x1="29.7683" y1="-8.48694e-09" x2="30.2317" y2="60" gradientUnits="userSpaceOnUse">
<stop stop-color="#90F9AB"/>
<stop offset="1" stop-color="#0CBB9E"/>
</linearGradient>
</defs>
</svg>
<!-- ED4D1B -->

<?xml version="1.0" encoding="UTF-8"?>
<svg id="Layer_1" data-name="Layer 1" xmlns="http://www.w3.org/2000/svg" xmlns:xlink="http://www.w3.org/1999/xlink" viewBox="0 0 60 60">
  <defs>
    <linearGradient id="linear-gradient" x1="29.77" y1="142" x2="30.23" y2="82" gradientTransform="translate(0 142) scale(1 -1)" gradientUnits="userSpaceOnUse">
      <stop offset="0" stop-color="#90f9ab"/>
      <stop offset="1" stop-color="#0cbb9e"/>
    </linearGradient>
  </defs>
  <path d="m30,60c16.57,0,30-13.43,30-30S46.57,0,30,0,0,13.43,0,30s13.43,30,30,30Z" fill="url(#linear-gradient)"/>
  <path d="m47.22,20.51v16.31c0,1.15-.49,2.26-1.37,3.07-.88.81-2.07,1.27-3.32,1.27h-11.75c-.78.11-1.52.39-2.16.83-2.1,1.36-4.11,2.83-6.03,4.4-.2-1.11-.53-2.19-.98-3.23-.18-.53-.52-.99-.97-1.35-.46-.35-1.01-.58-1.61-.65-1.24,0-2.44-.46-3.32-1.27s-1.37-1.92-1.37-3.07v-16.31c0-1.15.49-2.26,1.37-3.07.88-.81,2.07-1.27,3.32-1.27h23.49c.62,0,1.23.11,1.8.33.57.22,1.09.54,1.52.94s.78.88,1.02,1.41c.24.53.36,1.09.36,1.66Zm-28.25,22.84c.12.11.22.24.31.37.2.35.37.71.49,1.09.4,1.25.66,2.54.8,3.84.02.2.1.39.23.55.13.16.31.28.51.36.2.07.42.09.64.06.21-.04.41-.13.57-.26,0,0,3.63-3.04,6.33-4.85.64-.42,1.31-.8,2-1.15h11.67c1.87,0,3.66-.69,4.97-1.91,1.32-1.22,2.06-2.88,2.06-4.61v-16.33c0-1.73-.74-3.38-2.06-4.61-1.32-1.22-3.11-1.91-4.97-1.91h-23.5c-1.87,0-3.66.69-4.97,1.91-1.32,1.22-2.06,2.88-2.06,4.61v16.31c0,1.72.73,3.37,2.03,4.59,1.31,1.22,3.08,1.92,4.94,1.93Z" fill="#fff" fill-rule="evenodd" stroke="#fff" stroke-miterlimit="10" stroke-width=".5"/>
  <path d="m37.73,25.59c-.1-.31-.38-.53-.71-.56l-4.49-.4-1.77-4.1c-.13-.3-.43-.5-.76-.5s-.63.19-.76.5l-1.77,4.1-4.49.4c-.33.03-.61.25-.71.56-.1.31,0,.65.24.87l3.39,2.94-1,4.35c-.07.32.05.65.32.84.14.1.31.16.48.16.15,0,.29-.04.42-.12l3.87-2.29,3.87,2.29c.28.17.64.15.91-.04.27-.19.39-.52.32-.84l-1-4.35,3.39-2.94c.25-.22.34-.56.24-.87Z" fill="#ed4d1b"/>
</svg>
